icons/circle-alert.svg

<svg width="24" height="24" viewBox="0 0 24 24" fill="none" xmlns="http://www.w3.org/2000/svg">
<path fill-rule="evenodd" clip-rule="evenodd" d="M12 4C7.58172 4 4 7.58172 4 12C4 16.4183 7.58172 20 12 20C16.4183 20 20 16.4183 20 12C20 7.58172 16.4183 4 12 4ZM2 12C2 6.47715 6.47715 2 12 2C17.5228 2 22 6.47715 22 12C22 17.5228 17.5228 22 12 22C6.47715 22 2 17.5228 2 12ZM12 7C12.5523 7 13 7.44772 13 8V12C13 12.5523 12.5523 13 12 13C11.4477 13 11 12.5523 11 12V8C11 7.44772 11.4477 7 12 7ZM11 16C11 15.4477 11.4477 15 12 15H12.0095C12.5617 15 13.0095 15.4477 13.0095 16C13.0095 16.5523 12.5617 17 12.0095 17H12C11.4477 17 11 16.5523 11 16Z" fill="black"/>
</svg>

<svg
  width="24"
  height="24"
  viewBox="0 0 24 24"
  xmlns="http://www.w3.org/2000/svg"
>
  <path
    fill-rule="evenodd"
    clip-rule="evenodd"
    d="M12 4a8 8 0 1 0 0 16 8 8 0 0 0 0-16zM2 12C2 6.477 6.477 2 12 2s10 4.477 10 10-4.477 10-10 10S2 17.523 2 12zm10-5a1 1 0 0 1 1 1v4a1 1 0 1 1-2 0V8a1 1 0 0 1 1-1zm-1 9a1 1 0 0 1 1-1h.01a1 1 0 0 1 0 2H12a1 1 0 0 1-1-1z"
  />
</svg>
